!!!OTL: Lebenspflicht.
!!!OTL-incipit:ROSEN AUF DEN WEG GESTREUT
!!!COM: J. Fr. Reichardt
!!!ARE: Europa, Mitteleuropa, Deutschland
!!!SCT: F0115
!!!TXL: @@DE
!!!YEM: Copyright 1995, estate of Helmut Schaffrath.
**kern	**text
*ICvox	*
*clefG2	*
*M2/4	*
*k[f#c#g#]	*
*A:	*
=1	=1
!LO:TX:a:t=Mäßig.	!
{8a	Ro-
8e	-ſen
8e	auf
16dL	den
16c#J	.
=2	=2
8f#	Weg
8f#	ge-
8f#	-ſtreut,
8r}	.
=3	=3
{8.g#	und
16a	des
16b/L	Harms
16cc#J	.
16dd/L	ver-
16bJ	.
=4	=4
(8.a/L	-geſ-
16cc#J)	.
8a	-ſen,
8r}	.
=5	=5
{8a	Ei-
8e	-ne
8e	kur-
16dL	-ʒe
16c#J	.
=6	=6
8f#	Spanne
8f#	.
8f#	Ʒeit
8r}	.
=7	=7
{8.g#	ward
16a	uns
16b/L	ʒu-
16cc#J	.
16dd/L	-ge-
16bJ	.
=8	=8
(8.a/L	-meſ-
16cc#J)	.
8a	-ſen.
8r}	.
=9	=9
{8cc#/	Heu-
16bL	-te
16aJ	.
8b/	hüpft
8ee/	im
=10	=10
8a	Früh-
16g#L	-lingstanʒ
16f#J	.
8g#	.
8r}	.
=11	=11
{8.cc#/	noch
16dd#/	der
16ee/L	fro-
16bJ	.
16cc#/L	-he
16aJ	.
=12	=12
(>8g#L	Kna-
8f#J)	.
4e}	-be;
=13	=13
{8a	mor-
8e	-gen
8e	weht
16dnL	der
16c#J	.
=14	=14
8f#	Tod-
8f#	-ten-
8f#	-kranʒ
8r}	.
=15	=15
{8.g#	ſchon
16a	auf
16b/L	ſei-
16ccJ#	.
(16dd/L	-nem
16bJ)	.
=16	=16
(>8.a/L	Gra-
16cc#J)	.
4a}	-be.
==	==
!!!AGN: Moral - Lied, Vergaenglichkeit
!!!ONB: ESAC (Essen Associative Code) Database: FINK
!!!AMT: simple duple
!!!AIN: vox
!!!EED: Helmut Schaffrath
!!!EEV: 1.0
!!!RDF**kern: > = above
!!!GTL: Volkslieder
!!Text: L. H. Ch. Hoelty
!!!source: Musikalischer Hausschatz der Deutschen. Eine Sammlung von über 1000 Liedern und Gesängen mit Singstimmen und Klavierbegleitung. Leipzig, Litterarisches Verlags-Haus.
!!!page: 71
!!!URL-scan: https://www.digitale-sammlungen.de/en/view/bsb11144622?page=78,79
!!!ENC: Anna Maria Matuszewska
!!!EEV: 2024/25/07
*-	*-
